X:1
T:Dear Molly
M:2/2
L:1/4
K:G
 B| A G E D| G3/2 A/2 B B| A G E D| E3 z| G2 B d| e2 g e| d d de/2-d/2|\
 B3 E| G G B d| e g e e| d d eB/2-A/2| B2 d d| A G E E| G3/2 A/2 B B|\
 A G E D/2D/2| E3||
